X:19
T:19 The Banks of Swale
C:Welch MS
N:Minor amendments to regularise pick-up & bar lengths by MG
I:abc2nwc
M:2/4
L:1/16
K:G
D2|G3AG2B2|c2e2 e4|d2B2cBAG|F2A2 A4|
G3AG2B2|c2e2 e4|d2G2BAG[FA] |B2 G2 G2:|
z2|B3cB2e2|G2E2 E4|A3BA2d2|F2D2 D4|d3^cd2A2|
B2d2 A4|d2F2 FEDE|F2D2 D4|G3AG2B2|c2e2 e4|d2B2 cBAG|
F2A2 A4|G3AG2B2|c2e2 e4|g2d2 BAG[FA] |B2 G2 G2 |]


